;FLAVOR:Marlin
;TIME:1751
;Filament used: 1.19396m
;Layer height: 0.2
;MINX:80.907
;MINY:66.204
;MINZ:0.2
;MAXX:138.975
;MAXY:152.632
;MAXZ:6
;TARGET_MACHINE.NAME:Creality Ender-3 S1
;Generated with Cura_SteamEngine 5.9.1
M82 ;absolute extrusion mode
; Ender 3 S1 Start G-code
; M413 S0 ; Disable power loss recovery
G92 E0 ; Reset Extruder

; Prep surfaces before auto home for better accuracy
M140 S65
M104 S215

G28 ; Home all axes
G1 Z10.0 F3000 ; Move Z Axis up little to prevent scratching of Heat Bed
G1 X0 Y0

M190 S65
M109 S215

G1 X0.1 Y20 Z0.3 F5000.0 ; Move to start position
G1 X0.1 Y200.0 Z0.3 F1500.0 E15 ; Draw the first line
G1 X0.4 Y200.0 Z0.3 F5000.0 ; Move to side a little
G1 X0.4 Y20 Z0.3 F1500.0 E30 ; Draw the second line
G92 E0 ; Reset Extruder
G1 Z2.0 F3000 ; Move Z Axis up little to prevent scratching of Heat Bed
G1 X5 Y20 Z0.3 F5000.0 ; Move over to prevent blob squish

G92 E0
G92 E0
G1 F2400 E-0.8
;LAYER_COUNT:30
;LAYER:0
M107
M204 S2000
G0 F7500 X112.472 Y149.951 Z0.2
M204 S500
;TYPE:SKIRT
G1 F2400 E0
G1 F1500 X109.969 Y149.444 E0.08494
G1 X107.543 Y149.023 E0.16684
G1 X104.996 Y148.655 E0.25243
G1 X102.549 Y148.371 E0.33436
G1 X100.005 Y148.15 E0.4193
G1 X97.55 Y148.006 E0.50109
G1 X96.192 Y147.967 E0.54628
G1 X95.248 Y147.928 E0.5777
G1 X93.954 Y147.797 E0.62096
G1 X93.272 Y147.686 E0.64394
G1 X92.595 Y147.56 E0.66684
G1 X91.637 Y147.323 E0.69967
G1 X90.458 Y146.902 E0.74131
G1 X89.579 Y146.528 E0.77308
G1 X88.685 Y146.097 E0.80609
G1 X87.885 Y145.621 E0.83705
G1 X87.375 Y145.267 E0.8577
G1 X86.604 Y144.697 E0.88959
G1 X85.874 Y144.105 E0.92085
G1 X85.163 Y143.417 E0.95376
G1 X84.828 Y143.047 E0.97036
G1 X84.39 Y142.539 E0.99267
G1 X83.966 Y142.02 E1.01496
G1 X83.378 Y141.21 E1.04825
G1 X82.798 Y140.228 E1.08618
G1 X82.517 Y139.687 E1.10646
G1 X82.22 Y139.081 E1.1289
G1 X81.848 Y138.213 E1.16031
G1 X81.477 Y137.033 E1.20145
G1 X81.313 Y136.379 E1.22388
G1 X81.17 Y135.745 E1.2455
G1 X81.005 Y134.777 E1.27816
G1 X80.92 Y133.582 E1.318
G1 X80.907 Y132.633 E1.34957
G1 X80.911 Y95.483 E2.58518
G1 X80.923 Y94.772 E2.60883
G1 X80.975 Y93.869 E2.63892
G1 X81.034 Y93.282 E2.65854
G1 X81.124 Y92.568 E2.68248
G1 X81.292 Y91.64 E2.71384
G1 X81.618 Y90.489 E2.75363
G1 X81.817 Y89.908 E2.77406
G1 X82.06 Y89.256 E2.7972
G1 X82.451 Y88.356 E2.82984
G1 X83.034 Y87.309 E2.86969
G1 X83.779 Y86.131 E2.91605
G1 X84.534 Y84.976 E2.96195
G1 X85.849 Y82.834 E3.04555
G1 X87.096 Y80.671 E3.12859
G1 X88.87 Y77.332 E3.25434
G1 X89.298 Y76.488 E3.28582
G1 X89.778 Y75.64 E3.31823
G1 X90.29 Y74.896 E3.34827
G1 X90.638 Y74.456 E3.36692
G1 X91.64 Y73.242 E3.41928
G1 X92.243 Y72.541 E3.45003
G1 X92.795 Y71.932 E3.47737
G1 X93.5 Y71.209 E3.51096
G1 X94.213 Y70.547 E3.54332
G1 X94.984 Y69.949 E3.57577
G1 X95.78 Y69.438 E3.60723
G1 X97.006 Y68.82 E3.6529
G1 X97.687 Y68.531 E3.6775
G1 X99.199 Y67.913 E3.73183
G1 X100.462 Y67.376 E3.77748
G1 X101.566 Y66.98 E3.81649
G1 X102.434 Y66.727 E3.84656
G1 X103.027 Y66.568 E3.86698
G1 X103.978 Y66.362 E3.89934
G1 X104.945 Y66.24 E3.93176
G1 X105.916 Y66.204 E3.96408
G1 X106.818 Y66.248 E3.99411
G1 X107.849 Y66.391 E4.02873
G1 X108.62 Y66.562 E4.055
G1 X109.684 Y66.845 E4.09162
G1 X110.122 Y66.976 E4.10683
G1 X111.042 Y67.296 E4.13922
G1 X111.929 Y67.696 E4.17159
G1 X112.768 Y68.166 E4.20357
G1 X113.295 Y68.514 E4.22458
G1 X115.384 Y69.981 E4.30948
G1 X117.518 Y71.395 E4.39462
G1 X119.612 Y72.699 E4.47667
G1 X120.591 Y73.264 E4.51426
G1 X120.96 Y73.5 E4.52883
G1 X121.883 Y74.041 E4.56442
G1 X122.442 Y74.388 E4.5863
G1 X123.302 Y74.973 E4.62089
G1 X124.052 Y75.542 E4.65221
G1 X124.861 Y76.285 E4.68874
G1 X125.327 Y76.764 E4.71097
G1 X125.709 Y77.178 E4.7297
G1 X126.324 Y77.908 E4.76145
G1 X126.856 Y78.657 E4.79201
G1 X127.221 Y79.238 E4.81483
G1 X127.555 Y79.806 E4.83674
G1 X128.015 Y80.68 E4.86959
G1 X128.368 Y81.511 E4.89962
G1 X128.629 Y82.241 E4.92541
G1 X128.82 Y82.834 E4.94613
G1 X129.06 Y83.705 E4.97618
G1 X129.24 Y84.677 E5.00906
G1 X129.331 Y85.406 E5.03349
G1 X129.39 Y86.028 E5.05427
G1 X129.438 Y86.866 E5.08219
G1 X129.448 Y87.474 E5.10241
G1 X129.449 Y92.564 E5.27171
G1 X129.486 Y95.136 E5.35726
G1 X129.595 Y97.701 E5.44265
G1 X129.769 Y100.164 E5.52478
G1 X130.018 Y102.681 E5.6089
G1 X130.339 Y105.189 E5.693
G1 X130.725 Y107.65 E5.77585
G1 X131.183 Y110.115 E5.85924
G1 X131.72 Y112.607 E5.94403
G1 X132.313 Y115.031 E6.02703
G1 X132.984 Y117.475 E6.11132
G1 X133.717 Y119.866 E6.1945
G1 X134.528 Y122.268 E6.27882
G1 X135.395 Y124.62 E6.3622
G1 X136.475 Y127.293 E6.45808
G1 X136.747 Y127.941 E6.48146
G1 X137.056 Y128.773 E6.51098
G1 X137.211 Y129.248 E6.52759
G1 X137.429 Y129.977 E6.5529
G1 X137.6 Y130.635 E6.57551
G1 X138.373 Y134.056 E6.69217
G1 X138.669 Y135.261 E6.73344
G1 X138.857 Y136.217 E6.76584
G1 X138.959 Y137.186 E6.79825
G1 X138.975 Y138.159 E6.83061
G1 X138.905 Y139.131 E6.86303
G1 X138.753 Y140.077 E6.89489
G1 X138.627 Y140.621 E6.91347
G1 X138.409 Y141.438 E6.94159
G1 X138.206 Y142.121 E6.96529
G1 X137.887 Y143.041 E6.99768
G1 X137.488 Y143.929 E7.03006
G1 X137.011 Y144.779 E7.06248
G1 X136.453 Y145.594 E7.09533
G1 X135.581 Y146.619 E7.14009
G1 X135.1 Y147.116 E7.16309
G1 X134.522 Y147.683 E7.19002
G1 X133.623 Y148.467 E7.22969
G1 X131.562 Y150.077 E7.31668
G1 X130.767 Y150.639 E7.34906
G1 X129.925 Y151.13 E7.38148
G1 X129.038 Y151.546 E7.41406
G1 X128.001 Y151.917 E7.4507
G1 X127.431 Y152.087 E7.47048
G1 X126.728 Y152.277 E7.4947
G1 X125.775 Y152.48 E7.52711
G1 X124.81 Y152.599 E7.55945
G1 X123.908 Y152.632 E7.58947
G1 X122.863 Y152.577 E7.62427
G1 X121.937 Y152.444 E7.65539
G1 X121.167 Y152.272 E7.68163
G1 X120.439 Y152.071 E7.70675
G1 X119.835 Y151.885 E7.72777
G1 X117.358 Y151.16 E7.81361
G1 X114.913 Y150.518 E7.89769
G1 X112.472 Y149.951 E7.98104
M204 S2000
G0 F7500 X112.563 Y149.561
M204 S500
G1 F1500 X110.045 Y149.051 E8.06649
G1 X107.6 Y148.627 E8.14902
G1 X105.053 Y148.259 E8.23462
G1 X102.593 Y147.974 E8.31698
G1 X100.028 Y147.751 E8.40262
G1 X97.562 Y147.606 E8.48478
G1 X96.209 Y147.567 E8.5298
G1 X95.265 Y147.528 E8.56122
G1 X94.018 Y147.402 E8.60291
G1 X93.345 Y147.293 E8.62558
G1 X92.69 Y147.171 E8.64774
G1 X91.772 Y146.946 E8.67918
G1 X90.593 Y146.525 E8.72082
G1 X89.736 Y146.16 E8.7518
G1 X88.89 Y145.753 E8.78303
G1 X88.09 Y145.277 E8.81399
G1 X87.613 Y144.945 E8.83332
G1 X86.856 Y144.386 E8.86462
G1 X86.126 Y143.794 E8.89588
G1 X85.459 Y143.148 E8.92676
G1 X85.131 Y142.786 E8.94301
G1 X84.7 Y142.286 E8.96496
G1 X84.276 Y141.767 E8.98725
G1 X83.722 Y141.006 E9.01856
G1 X83.153 Y140.044 E9.05574
G1 X82.876 Y139.511 E9.07571
G1 X82.588 Y138.923 E9.09749
G1 X82.216 Y138.055 E9.1289
G1 X81.865 Y136.935 E9.16794
G1 X81.703 Y136.291 E9.19003
G1 X81.564 Y135.677 E9.21096
G1 X81.404 Y134.748 E9.24232
G1 X81.32 Y133.576 E9.2814
G1 X81.307 Y132.633 E9.31277
G1 X81.311 Y95.489 E10.54818
G1 X81.322 Y94.795 E10.57127
G1 X81.373 Y93.909 E10.60078
G1 X81.431 Y93.332 E10.62007
G1 X81.518 Y92.639 E10.6433
G1 X81.686 Y91.711 E10.67467
G1 X81.996 Y90.619 E10.71242
G1 X82.192 Y90.047 E10.73253
G1 X82.427 Y89.415 E10.75496
G1 X82.801 Y88.55 E10.7863
G1 X83.372 Y87.523 E10.82539
G1 X84.114 Y86.35 E10.87155
G1 X84.869 Y85.195 E10.91745
G1 X86.191 Y83.042 E11.00148
G1 X87.443 Y80.871 E11.08483
G1 X89.223 Y77.52 E11.21103
G1 X89.646 Y76.685 E11.24217
G1 X90.108 Y75.867 E11.27341
G1 X90.62 Y75.123 E11.30345
G1 X90.946 Y74.711 E11.32093
G1 X91.943 Y73.503 E11.37302
G1 X92.539 Y72.81 E11.40342
G1 X93.082 Y72.211 E11.43031
G1 X93.772 Y71.502 E11.46322
G1 X94.459 Y70.863 E11.49442
G1 X95.2 Y70.286 E11.52566
G1 X95.996 Y69.775 E11.55712
G1 X97.162 Y69.188 E11.60054
G1 X97.838 Y68.901 E11.62497
G1 X99.356 Y68.281 E11.6795
G1 X100.597 Y67.753 E11.72436
G1 X101.701 Y67.357 E11.76337
G1 X102.538 Y67.113 E11.79237
G1 X103.112 Y66.959 E11.81213
G1 X104.029 Y66.759 E11.84335
G1 X104.96 Y66.64 E11.87457
G1 X105.897 Y66.604 E11.90576
G1 X106.799 Y66.648 E11.93579
G1 X107.762 Y66.781 E11.96813
G1 X108.517 Y66.949 E11.99385
G1 X109.581 Y67.232 E12.03047
G1 X109.991 Y67.354 E12.0447
G1 X110.878 Y67.661 E12.07592
G1 X111.734 Y68.045 E12.10712
G1 X112.548 Y68.5 E12.13814
G1 X113.065 Y68.841 E12.15874
G1 X115.163 Y70.314 E12.244
G1 X117.307 Y71.735 E12.32955
G1 X119.412 Y73.046 E12.41203
G1 X120.375 Y73.601 E12.449
G1 X120.744 Y73.837 E12.46356
G1 X121.672 Y74.381 E12.49934
G1 X122.217 Y74.719 E12.52067
G1 X123.06 Y75.292 E12.55457
G1 X123.81 Y75.861 E12.58589
G1 X124.574 Y76.564 E12.62042
G1 X125.033 Y77.036 E12.64232
G1 X125.403 Y77.436 E12.66044
G1 X126.018 Y78.166 E12.69219
G1 X126.517 Y78.87 E12.72089
G1 X126.876 Y79.441 E12.74332
G1 X127.201 Y79.993 E12.76463
G1 X127.647 Y80.837 E12.79638
G1 X127.991 Y81.646 E12.82561
G1 X128.248 Y82.364 E12.85098
G1 X128.434 Y82.94 E12.87111
G1 X128.674 Y83.811 E12.90116
G1 X128.843 Y84.727 E12.93214
G1 X128.933 Y85.444 E12.95617
G1 X128.991 Y86.051 E12.97646
G1 X129.038 Y86.873 E13.00384
G1 X129.048 Y87.474 E13.02383
G1 X129.049 Y92.564 E13.19313
G1 X129.086 Y95.153 E13.27925
G1 X129.195 Y97.718 E13.36464
G1 X129.371 Y100.203 E13.44749
G1 X129.621 Y102.732 E13.53202
G1 X129.942 Y105.24 E13.61612
G1 X130.332 Y107.723 E13.69971
G1 X130.792 Y110.199 E13.78347
G1 X131.331 Y112.702 E13.86863
G1 X131.927 Y115.137 E13.95201
G1 X132.599 Y117.581 E14.03632
G1 X133.338 Y119.994 E14.12025
G1 X134.149 Y122.396 E14.20457
G1 X135.024 Y124.77 E14.28873
G1 X136.106 Y127.448 E14.38479
G1 X136.372 Y128.08 E14.4076
G1 X136.676 Y128.897 E14.43659
G1 X136.828 Y129.363 E14.45289
G1 X137.042 Y130.078 E14.47772
G1 X137.21 Y130.723 E14.49989
G1 X137.985 Y134.151 E14.61678
G1 X138.277 Y135.339 E14.65747
G1 X138.459 Y136.26 E14.68869
G1 X138.559 Y137.193 E14.7199
G1 X138.576 Y138.131 E14.75111
G1 X138.51 Y139.068 E14.78235
G1 X138.363 Y139.987 E14.8133
G1 X138.24 Y140.518 E14.83143
G1 X138.025 Y141.325 E14.85921
G1 X137.828 Y141.991 E14.88231
G1 X137.522 Y142.878 E14.91352
G1 X137.139 Y143.734 E14.94471
G1 X136.681 Y144.554 E14.97595
G1 X136.148 Y145.335 E15.0074
G1 X135.293 Y146.341 E15.05131
G1 X134.82 Y146.83 E15.07394
G1 X134.242 Y147.397 E15.10087
G1 X133.377 Y148.152 E15.13905
G1 X131.331 Y149.751 E15.22542
G1 X130.565 Y150.294 E15.25665
G1 X129.755 Y150.768 E15.28786
G1 X128.903 Y151.169 E15.31918
G1 X127.866 Y151.54 E15.35581
G1 X127.326 Y151.701 E15.37456
G1 X126.644 Y151.886 E15.39806
G1 X125.726 Y152.083 E15.42929
G1 X124.795 Y152.199 E15.46049
G1 X123.893 Y152.232 E15.49051
G1 X122.92 Y152.181 E15.52292
G1 X121.994 Y152.048 E15.55403
G1 X121.273 Y151.886 E15.57861
G1 X120.557 Y151.689 E15.60331
G1 X119.947 Y151.501 E15.62454
G1 X117.46 Y150.773 E15.71073
G1 X115.004 Y150.128 E15.79519
G1 X112.563 Y149.561 E15.87854
M204 S2000
G0 F7500 X112.654 Y149.171
M204 S500
G1 F1500 X110.121 Y148.658 E15.9645
G1 X107.657 Y148.231 E16.04767
G1 X105.11 Y147.863 E16.13326
G1 X102.639 Y147.577 E16.216
G1 X100.052 Y147.352 E16.30237
G1 X97.574 Y147.206 E16.38493
G1 X96.226 Y147.167 E16.42978
G1 X95.282 Y147.128 E16.46121
G1 X94.082 Y147.007 E16.50132
G1 X93.418 Y146.9 E16.52369
G1 X92.784 Y146.782 E16.54514
G1 X91.906 Y146.569 E16.57519
G1 X90.75 Y146.157 E16.61601
G1 X89.909 Y145.799 E16.64641
G1 X89.094 Y145.409 E16.67646
G1 X88.318 Y144.948 E16.70648
G1 X87.85 Y144.623 E16.72543
G1 X87.107 Y144.075 E16.75614
G1 X86.404 Y143.507 E16.7862
G1 X85.755 Y142.879 E16.81623
G1 X85.434 Y142.525 E16.83213
G1 X85.01 Y142.033 E16.85373
G1 X84.599 Y141.531 E16.87531
G1 X84.066 Y140.802 E16.90534
G1 X83.508 Y139.859 E16.94179
G1 X83.235 Y139.335 E16.96144
G1 X82.955 Y138.765 E16.98256
G1 X82.598 Y137.935 E17.01261
G1 X82.247 Y136.815 E17.05165
G1 X82.093 Y136.202 E17.07267
G1 X81.958 Y135.608 E17.09293
G1 X81.803 Y134.719 E17.12295
G1 X81.72 Y133.57 E17.16126
G1 X81.707 Y132.633 E17.19243
G1 X81.711 Y95.495 E18.42765
G1 X81.721 Y94.818 E18.45017
G1 X81.771 Y93.949 E18.47912
G1 X81.828 Y93.382 E18.49807
G1 X81.912 Y92.709 E18.52063
G1 X82.071 Y91.82 E18.55067
G1 X82.374 Y90.749 E18.58769
G1 X82.567 Y90.186 E18.60748
G1 X82.794 Y89.573 E18.62922
G1 X83.151 Y88.744 E18.65924
G1 X83.71 Y87.737 E18.69755
G1 X84.449 Y86.569 E18.74352
G1 X85.204 Y85.414 E18.78942
G1 X86.538 Y83.242 E18.87419
G1 X87.79 Y81.071 E18.95755
G1 X89.576 Y77.708 E19.0842
G1 X89.995 Y76.881 E19.11503
G1 X90.438 Y76.094 E19.14507
G1 X90.95 Y75.35 E19.17511
G1 X91.254 Y74.966 E19.1914
G1 X92.247 Y73.764 E19.24326
G1 X92.835 Y73.079 E19.27328
G1 X93.369 Y72.49 E19.29972
G1 X94.045 Y71.794 E19.33199
G1 X94.705 Y71.178 E19.36202
G1 X95.417 Y70.622 E19.39207
G1 X96.176 Y70.132 E19.42212
G1 X97.319 Y69.556 E19.46469
G1 X97.989 Y69.271 E19.4889
G1 X99.513 Y68.649 E19.54365
G1 X100.732 Y68.13 E19.58772
G1 X101.836 Y67.734 E19.62673
G1 X102.641 Y67.499 E19.65462
G1 X103.198 Y67.35 E19.6738
G1 X104.08 Y67.156 E19.70383
G1 X104.976 Y67.04 E19.73388
G1 X105.878 Y67.004 E19.76391
G1 X106.78 Y67.048 E19.79394
G1 X107.675 Y67.171 E19.82399
G1 X108.414 Y67.336 E19.84918
G1 X109.468 Y67.616 E19.88545
G1 X109.861 Y67.732 E19.89908
G1 X110.715 Y68.026 E19.92912
G1 X111.539 Y68.394 E19.95913
G1 X112.328 Y68.834 E19.98918
G1 X112.835 Y69.168 E20.00937
G1 X114.942 Y70.647 E20.09499
G1 X117.095 Y72.074 E20.1809
G1 X119.212 Y73.393 E20.26386
G1 X120.175 Y73.948 E20.30083
G1 X120.542 Y74.182 E20.31531
G1 X121.461 Y74.721 E20.35074
G1 X121.992 Y75.05 E20.37152
G1 X122.819 Y75.611 E20.40476
G1 X123.539 Y76.156 E20.43479
G1 X124.287 Y76.843 E20.46857
G1 X124.739 Y77.308 E20.49014
G1 X125.109 Y77.708 E20.50826
G1 X125.692 Y78.397 E20.53828
G1 X126.178 Y79.083 E20.56624
G1 X126.531 Y79.644 E20.58829
G1 X126.856 Y80.196 E20.60959
G1 X127.279 Y80.994 E20.63963
G1 X127.614 Y81.781 E20.66808
G1 X127.867 Y82.487 E20.69303
G1 X128.048 Y83.046 E20.71257
G1 X128.288 Y83.917 E20.74262
G1 X128.446 Y84.777 E20.7717
G1 X128.535 Y85.482 E20.79534
G1 X128.592 Y86.074 E20.81512
G1 X128.638 Y86.88 E20.84197
G1 X128.648 Y87.474 E20.86173
G1 X128.649 Y92.564 E21.03102
G1 X128.686 Y95.17 E21.11771
G1 X128.795 Y97.735 E21.2031
G1 X128.973 Y100.242 E21.28669
G1 X129.224 Y102.783 E21.37161
G1 X129.545 Y105.291 E21.45571
G1 X129.939 Y107.796 E21.54005
G1 X130.401 Y110.283 E21.62418
G1 X130.942 Y112.797 E21.70972
G1 X131.541 Y115.243 E21.79347
G1 X132.214 Y117.687 E21.87779
G1 X132.959 Y120.122 E21.96248
G1 X133.77 Y122.524 E22.0468
G1 X134.653 Y124.92 E22.13173
G1 X135.737 Y127.604 E22.22801
G1 X135.997 Y128.22 E22.25025
G1 X136.296 Y129.021 E22.27868
G1 X136.445 Y129.478 E22.29467
G1 X136.655 Y130.179 E22.31901
G1 X136.82 Y130.811 E22.34074
G1 X137.597 Y134.247 E22.4579
G1 X137.885 Y135.417 E22.49798
G1 X138.061 Y136.303 E22.52802
G1 X138.159 Y137.201 E22.55807
G1 X138.177 Y138.104 E22.58811
G1 X138.115 Y139.005 E22.61815
G1 X137.973 Y139.897 E22.64819
G1 X137.853 Y140.415 E22.66587
G1 X137.641 Y141.212 E22.6933
G1 X137.45 Y141.861 E22.7158
G1 X137.157 Y142.715 E22.74583
G1 X136.789 Y143.54 E22.77588
G1 X136.35 Y144.329 E22.80591
G1 X135.843 Y145.076 E22.83594
G1 X134.988 Y146.082 E22.87985
G1 X134.54 Y146.544 E22.90125
G1 X133.962 Y147.111 E22.92818
G1 X133.131 Y147.837 E22.96489
G1 X131.099 Y149.425 E23.05066
G1 X130.363 Y149.949 E23.08071
G1 X129.584 Y150.406 E23.11075
G1 X128.768 Y150.792 E23.14077
G1 X127.731 Y151.163 E23.1774
G1 X127.221 Y151.315 E23.1951
G1 X126.559 Y151.495 E23.21792
G1 X125.676 Y151.686 E23.24797
G1 X124.78 Y151.799 E23.27801
G1 X123.878 Y151.832 E23.30803
G1 X122.976 Y151.785 E23.33807
G1 X122.082 Y151.658 E23.3681
G1 X121.379 Y151.5 E23.39207
G1 X120.675 Y151.307 E23.41635
G1 X120.059 Y151.117 E23.43779
G1 X117.562 Y150.386 E23.52432
G1 X115.095 Y149.738 E23.60916
G1 X112.654 Y149.171 E23.69251
