;FLAVOR:Marlin
;TIME:1066
;Filament used: 0.634142m
;Layer height: 0.2
;MINX:84.307
;MINY:85.525
;MINZ:0.2
;MAXX:135.731
;MAXY:134.475
;MAXZ:3.4
;TARGET_MACHINE.NAME:Creality Ender-3 S1
;Generated with Cura_SteamEngine 5.9.1
M82 ;absolute extrusion mode
; Ender 3 S1 Start G-code
; M413 S0 ; Disable power loss recovery
G92 E0 ; Reset Extruder

; Prep surfaces before auto home for better accuracy
M140 S60
M104 S200

G28 ; Home all axes
G1 Z10.0 F3000 ; Move Z Axis up little to prevent scratching of Heat Bed
G1 X0 Y0

M190 S60
M109 S200

G1 X0.1 Y20 Z0.3 F5000.0 ; Move to start position
G1 X0.1 Y200.0 Z0.3 F1500.0 E15 ; Draw the first line
G1 X0.4 Y200.0 Z0.3 F5000.0 ; Move to side a little
G1 X0.4 Y20 Z0.3 F1500.0 E30 ; Draw the second line
G92 E0 ; Reset Extruder
G1 Z2.0 F3000 ; Move Z Axis up little to prevent scratching of Heat Bed
G1 X5 Y20 Z0.3 F5000.0 ; Move over to prevent blob squish

G92 E0
G92 E0
G1 F2400 E-0.8
;LAYER_COUNT:17
;LAYER:0
M107
M204 S2000
G0 F7500 X111.649 Y134.394 Z0.2
M204 S500
;TYPE:SKIRT
G1 F2400 E0
G1 F1500 X110.723 Y134.449 E0.03085
G1 X109.27 Y134.475 E0.07919
G1 X100.49 Y134.469 E0.37121
G1 X99.952 Y134.454 E0.38911
G1 X99.08 Y134.409 E0.41815
G1 X98.121 Y134.314 E0.45021
G1 X97.407 Y134.188 E0.47432
G1 X96.843 Y134.068 E0.4935
G1 X95.919 Y133.828 E0.52525
G1 X95.451 Y133.674 E0.54164
G1 X94.93 Y133.487 E0.56005
G1 X94.019 Y133.113 E0.5928
G1 X93.059 Y132.626 E0.62861
G1 X92.277 Y132.175 E0.65863
G1 X91.804 Y131.857 E0.67759
G1 X91.333 Y131.524 E0.69677
G1 X90.599 Y130.953 E0.7277
G1 X89.784 Y130.208 E0.76443
G1 X89.152 Y129.562 E0.79449
G1 X88.792 Y129.142 E0.81289
G1 X88.432 Y128.7 E0.83185
G1 X87.893 Y127.976 E0.86187
G1 X87.284 Y127.003 E0.90005
G1 X86.836 Y126.187 E0.93101
G1 X86.595 Y125.667 E0.95007
G1 X86.363 Y125.129 E0.96956
G1 X86.033 Y124.258 E1.00054
G1 X85.871 Y123.724 E1.0191
G1 X85.715 Y123.153 E1.03878
G1 X85.501 Y122.209 E1.07098
G1 X85.351 Y121.167 E1.10599
G1 X85.28 Y120.453 E1.12986
G1 X85.172 Y118.836 E1.18376
G1 X84.956 Y116.253 E1.26997
G1 X84.671 Y113.728 E1.35449
G1 X84.444 Y112.069 E1.41018
G1 X84.376 Y111.412 E1.43215
G1 X84.331 Y110.784 E1.45309
G1 X84.308 Y109.719 E1.48852
G1 X84.335 Y108.752 E1.52069
G1 X84.376 Y107.791 E1.55268
G1 X84.411 Y105.287 E1.63598
G1 X84.374 Y102.777 E1.71947
G1 X84.307 Y100.84 E1.78393
G1 X84.328 Y99.822 E1.8178
G1 X84.37 Y99.188 E1.83893
G1 X84.469 Y98.29 E1.86898
G1 X84.595 Y97.61 E1.89198
G1 X84.721 Y97.033 E1.91162
G1 X84.953 Y96.16 E1.94167
G1 X85.142 Y95.603 E1.96123
G1 X85.35 Y95.04 E1.98119
G1 X85.724 Y94.155 E2.01315
G1 X85.982 Y93.646 E2.03213
G1 X86.276 Y93.105 E2.05261
G1 X86.741 Y92.331 E2.08264
G1 X87.131 Y91.775 E2.10523
G1 X87.497 Y91.288 E2.12549
G1 X88.07 Y90.59 E2.15553
G1 X88.508 Y90.126 E2.17675
G1 X88.938 Y89.698 E2.19693
G1 X89.646 Y89.054 E2.22876
G1 X90.038 Y88.741 E2.24545
G1 X90.475 Y88.41 E2.26368
G1 X91.297 Y87.845 E2.29685
G1 X91.806 Y87.547 E2.31647
G1 X92.333 Y87.256 E2.3365
G1 X93.166 Y86.845 E2.36739
G1 X93.693 Y86.628 E2.38635
G1 X94.253 Y86.415 E2.40627
G1 X95.11 Y86.13 E2.43631
G1 X95.77 Y85.963 E2.45896
G1 X96.384 Y85.829 E2.47986
G1 X97.331 Y85.665 E2.51182
G1 X97.928 Y85.605 E2.53178
G1 X98.529 Y85.561 E2.55182
G1 X99.023 Y85.538 E2.56827
G1 X99.673 Y85.525 E2.58989
G1 X110.6 Y85.525 E2.95333
G1 X111.724 Y85.547 E2.99072
G1 X112.44 Y85.586 E3.01457
G1 X112.887 Y85.627 E3.0295
G1 X114.222 Y85.831 E3.07442
G1 X114.793 Y85.956 E3.09386
G1 X115.666 Y86.188 E3.1239
G1 X116.235 Y86.382 E3.1439
G1 X116.79 Y86.589 E3.1636
G1 X118.061 Y87.158 E3.20991
G1 X119.058 Y87.683 E3.24739
G1 X121.439 Y88.895 E3.33625
G1 X123.686 Y89.96 E3.41896
G1 X127.009 Y91.413 E3.53959
G1 X127.819 Y91.812 E3.56962
G1 X128.78 Y92.382 E3.60678
G1 X129.53 Y92.885 E3.63682
G1 X130.009 Y93.255 E3.65695
G1 X130.463 Y93.628 E3.67649
G1 X131.185 Y94.279 E3.70882
G1 X131.544 Y94.646 E3.7259
G1 X131.906 Y95.037 E3.74362
G1 X132.816 Y96.161 E3.79172
G1 X133.14 Y96.621 E3.81044
G1 X133.628 Y97.381 E3.84048
G1 X133.898 Y97.869 E3.85903
G1 X134.193 Y98.438 E3.88034
G1 X134.598 Y99.315 E3.91247
G1 X134.84 Y99.967 E3.9356
G1 X135.016 Y100.494 E3.95408
G1 X135.353 Y101.742 E3.99708
G1 X135.467 Y102.304 E4.01615
G1 X135.643 Y103.531 E4.05738
G1 X135.705 Y104.535 E4.09084
G1 X135.731 Y105.988 E4.13917
G1 X135.725 Y114.794 E4.43206
G1 X135.709 Y115.341 E4.45026
G1 X135.665 Y116.178 E4.47814
G1 X135.57 Y117.137 E4.51019
G1 X135.451 Y117.815 E4.53309
G1 X135.331 Y118.39 E4.55262
G1 X135.107 Y119.265 E4.58266
G1 X134.93 Y119.808 E4.60166
G1 X134.743 Y120.329 E4.62007
G1 X134.369 Y121.24 E4.65282
G1 X133.883 Y122.199 E4.68858
G1 X133.432 Y122.981 E4.71861
G1 X132.792 Y123.909 E4.7561
G1 X132.205 Y124.665 E4.78794
G1 X131.877 Y125.034 E4.80436
G1 X131.455 Y125.486 E4.82492
G1 X130.776 Y126.152 E4.85656
G1 X130.235 Y126.608 E4.88009
G1 X129.855 Y126.908 E4.89619
G1 X128.763 Y127.668 E4.94044
G1 X128.244 Y127.982 E4.96062
G1 X127.428 Y128.43 E4.99158
G1 X126.863 Y128.691 E5.01228
G1 X126.019 Y129.044 E5.04271
G1 X125.323 Y129.312 E5.06751
G1 X124.114 Y129.758 E5.11038
G1 X121.796 Y130.687 E5.19343
G1 X119.463 Y131.699 E5.27802
G1 X116.478 Y133.103 E5.38773
G1 X115.506 Y133.502 E5.42268
G1 X114.95 Y133.699 E5.4423
G1 X114.087 Y133.963 E5.47231
G1 X113.515 Y134.096 E5.49185
G1 X112.926 Y134.215 E5.51183
G1 X111.649 Y134.394 E5.55472
M204 S2000
G0 F7500 X111.625 Y133.995
M204 S500
G1 F1500 X110.716 Y134.049 E5.58501
G1 X109.27 Y134.075 E5.63311
G1 X100.501 Y134.069 E5.92477
G1 X99.973 Y134.055 E5.94233
G1 X99.119 Y134.011 E5.97078
G1 X98.19 Y133.92 E6.00182
G1 X97.49 Y133.797 E6.02546
G1 X96.943 Y133.681 E6.04406
G1 X96.044 Y133.448 E6.07495
G1 X95.586 Y133.297 E6.09099
G1 X95.082 Y133.117 E6.10879
G1 X94.2 Y132.756 E6.14049
G1 X93.259 Y132.279 E6.17557
G1 X92.477 Y131.828 E6.2056
G1 X92.035 Y131.531 E6.22331
G1 X91.579 Y131.208 E6.2419
G1 X90.845 Y130.637 E6.27283
G1 X90.07 Y129.928 E6.30776
G1 X89.438 Y129.282 E6.33782
G1 X89.102 Y128.89 E6.35499
G1 X88.753 Y128.461 E6.37339
G1 X88.214 Y127.737 E6.40341
G1 X87.635 Y126.81 E6.43976
G1 X87.187 Y125.994 E6.47072
G1 X86.962 Y125.509 E6.4885
G1 X86.737 Y124.987 E6.50741
G1 X86.416 Y124.142 E6.53747
G1 X86.257 Y123.618 E6.55569
G1 X86.105 Y123.064 E6.57479
G1 X85.897 Y122.152 E6.60591
G1 X85.749 Y121.127 E6.64035
G1 X85.679 Y120.426 E6.66378
G1 X85.571 Y118.803 E6.71788
G1 X85.354 Y116.22 E6.8041
G1 X85.068 Y113.683 E6.88901
G1 X84.842 Y112.028 E6.94457
G1 X84.775 Y111.383 E6.96614
G1 X84.731 Y110.775 E6.98641
G1 X84.708 Y109.73 E7.02118
G1 X84.735 Y108.769 E7.05315
G1 X84.776 Y107.808 E7.08515
G1 X84.811 Y105.293 E7.1688
G1 X84.774 Y102.771 E7.25269
G1 X84.707 Y100.848 E7.31669
G1 X84.727 Y99.849 E7.34993
G1 X84.768 Y99.232 E7.37049
G1 X84.867 Y98.334 E7.40054
G1 X84.986 Y97.695 E7.42216
G1 X85.108 Y97.136 E7.44119
G1 X85.34 Y96.263 E7.47123
G1 X85.517 Y95.742 E7.48953
G1 X85.719 Y95.195 E7.50893
G1 X86.081 Y94.336 E7.53993
G1 X86.334 Y93.837 E7.55854
G1 X86.619 Y93.311 E7.57844
G1 X87.084 Y92.537 E7.60847
G1 X87.451 Y92.015 E7.62969
G1 X87.806 Y91.542 E7.64936
G1 X88.379 Y90.844 E7.6794
G1 X88.791 Y90.409 E7.69933
G1 X89.207 Y89.994 E7.71887
G1 X89.895 Y89.367 E7.74983
G1 X90.28 Y89.06 E7.76621
G1 X90.717 Y88.729 E7.78444
G1 X91.5 Y88.19 E7.81606
G1 X91.999 Y87.897 E7.83531
G1 X92.51 Y87.615 E7.85472
G1 X93.319 Y87.215 E7.88473
G1 X93.835 Y87.002 E7.9033
G1 X94.379 Y86.795 E7.92266
G1 X95.236 Y86.51 E7.9527
G1 X95.856 Y86.354 E7.97396
G1 X96.453 Y86.223 E7.99429
G1 X97.371 Y86.063 E8.02529
G1 X97.957 Y86.004 E8.04487
G1 X98.548 Y85.961 E8.06458
G1 X99.031 Y85.938 E8.08067
G1 X99.681 Y85.925 E8.10229
G1 X110.592 Y85.925 E8.46519
G1 X111.702 Y85.946 E8.50212
G1 X112.404 Y85.984 E8.5255
G1 X112.827 Y86.022 E8.53962
G1 X114.137 Y86.222 E8.5837
G1 X114.69 Y86.343 E8.60253
G1 X115.563 Y86.575 E8.63257
G1 X116.095 Y86.757 E8.65127
G1 X116.65 Y86.964 E8.67097
G1 X117.875 Y87.512 E8.71561
G1 X118.872 Y88.037 E8.75309
G1 X121.268 Y89.257 E8.84251
G1 X123.515 Y90.321 E8.9252
G1 X126.832 Y91.772 E9.04562
G1 X127.642 Y92.171 E9.07565
G1 X128.557 Y92.714 E9.11104
G1 X129.307 Y93.217 E9.14108
G1 X129.755 Y93.564 E9.15993
G1 X130.195 Y93.925 E9.17886
G1 X130.899 Y94.559 E9.21037
G1 X131.25 Y94.918 E9.22707
G1 X131.612 Y95.309 E9.24479
G1 X132.489 Y96.392 E9.29114
G1 X132.803 Y96.837 E9.30925
G1 X133.291 Y97.597 E9.33929
G1 X133.543 Y98.054 E9.35665
G1 X133.83 Y98.606 E9.37734
G1 X134.223 Y99.454 E9.40843
G1 X134.461 Y100.094 E9.43114
G1 X134.63 Y100.598 E9.44882
G1 X134.961 Y101.822 E9.49099
G1 X135.071 Y102.361 E9.50929
G1 X135.247 Y103.588 E9.55052
G1 X135.305 Y104.542 E9.58231
G1 X135.331 Y105.988 E9.63041
G1 X135.325 Y114.783 E9.92293
G1 X135.31 Y115.32 E9.9408
G1 X135.267 Y116.139 E9.96808
G1 X135.176 Y117.068 E9.99912
G1 X135.06 Y117.733 E10.02157
G1 X134.943 Y118.291 E10.04054
G1 X134.719 Y119.166 E10.07058
G1 X134.553 Y119.673 E10.08832
G1 X134.373 Y120.177 E10.10612
G1 X134.012 Y121.059 E10.13782
G1 X133.536 Y121.999 E10.17286
G1 X133.085 Y122.781 E10.20289
G1 X132.476 Y123.664 E10.23857
G1 X131.906 Y124.399 E10.2695
G1 X131.584 Y124.761 E10.28562
G1 X131.175 Y125.2 E10.30557
G1 X130.496 Y125.866 E10.33721
G1 X129.987 Y126.294 E10.35932
G1 X129.607 Y126.594 E10.37543
G1 X128.555 Y127.326 E10.41805
G1 X128.051 Y127.632 E10.43767
G1 X127.26 Y128.067 E10.46769
G1 X126.709 Y128.322 E10.48788
G1 X125.875 Y128.671 E10.51795
G1 X125.185 Y128.937 E10.54255
G1 X123.965 Y129.387 E10.5858
G1 X121.637 Y130.32 E10.66922
G1 X119.304 Y131.332 E10.7538
G1 X116.326 Y132.733 E10.86326
G1 X115.372 Y133.125 E10.89756
G1 X114.833 Y133.316 E10.91658
G1 X113.97 Y133.58 E10.9466
G1 X113.435 Y133.704 E10.96487
G1 X112.87 Y133.819 E10.98404
G1 X111.625 Y133.995 E11.02586
M204 S2000
G0 F7500 X111.601 Y133.596
M204 S500
G1 F1500 X110.709 Y133.649 E11.05558
G1 X109.27 Y133.675 E11.10345
G1 X100.511 Y133.669 E11.39478
G1 X99.994 Y133.656 E11.41198
G1 X99.158 Y133.613 E11.43982
G1 X98.259 Y133.526 E11.46986
G1 X97.573 Y133.406 E11.49302
G1 X97.043 Y133.294 E11.51104
G1 X96.169 Y133.068 E11.54107
G1 X95.721 Y132.92 E11.55676
G1 X95.217 Y132.74 E11.57456
G1 X94.381 Y132.399 E11.60459
G1 X93.459 Y131.932 E11.63897
G1 X92.677 Y131.481 E11.66899
G1 X92.266 Y131.205 E11.68546
G1 X91.824 Y130.892 E11.70347
G1 X91.111 Y130.338 E11.7335
G1 X90.754 Y130.02 E11.7494
G1 X90.356 Y129.648 E11.76752
G1 X89.724 Y129.002 E11.79758
G1 X89.412 Y128.637 E11.81355
G1 X89.074 Y128.222 E11.83135
G1 X88.535 Y127.498 E11.86137
G1 X87.985 Y126.617 E11.89592
G1 X87.55 Y125.826 E11.92594
G1 X87.329 Y125.35 E11.9434
G1 X87.111 Y124.845 E11.96169
G1 X86.79 Y124 E11.99176
G1 X86.643 Y123.512 E12.00871
G1 X86.495 Y122.975 E12.02723
G1 X86.293 Y122.095 E12.05726
G1 X86.147 Y121.087 E12.09114
G1 X86.078 Y120.4 E12.11411
G1 X85.97 Y118.769 E12.16847
G1 X85.752 Y116.186 E12.25469
G1 X85.465 Y113.638 E12.33997
G1 X85.24 Y111.987 E12.39539
G1 X85.174 Y111.354 E12.41656
G1 X85.131 Y110.766 E12.43617
G1 X85.108 Y109.741 E12.47027
G1 X85.135 Y108.786 E12.50204
G1 X85.176 Y107.825 E12.53404
G1 X85.211 Y105.299 E12.61806
G1 X85.174 Y102.765 E12.70235
G1 X85.107 Y100.856 E12.76588
G1 X85.126 Y99.876 E12.79848
G1 X85.166 Y99.276 E12.81848
G1 X85.265 Y98.378 E12.84853
G1 X85.377 Y97.78 E12.86877
G1 X85.495 Y97.239 E12.88718
G1 X85.727 Y96.366 E12.91723
G1 X85.892 Y95.881 E12.93427
G1 X86.088 Y95.35 E12.95309
G1 X86.438 Y94.517 E12.98314
G1 X86.686 Y94.027 E13.00141
G1 X86.962 Y93.517 E13.0207
G1 X87.427 Y92.743 E13.05073
G1 X87.771 Y92.255 E13.07059
G1 X88.115 Y91.796 E13.08967
G1 X88.688 Y91.098 E13.1197
G1 X89.073 Y90.692 E13.13831
G1 X89.477 Y90.289 E13.15729
G1 X90.144 Y89.68 E13.18733
G1 X90.522 Y89.379 E13.2034
G1 X90.959 Y89.048 E13.22164
G1 X91.703 Y88.535 E13.25169
G1 X92.192 Y88.247 E13.27057
G1 X92.687 Y87.974 E13.28937
G1 X93.496 Y87.574 E13.31939
G1 X93.978 Y87.376 E13.33672
G1 X94.505 Y87.175 E13.35548
G1 X95.362 Y86.89 E13.38552
G1 X95.942 Y86.745 E13.4054
G1 X96.522 Y86.617 E13.42516
G1 X97.411 Y86.461 E13.45518
G1 X97.986 Y86.403 E13.4744
G1 X98.568 Y86.361 E13.49381
G1 X99.039 Y86.338 E13.50949
G1 X99.689 Y86.325 E13.53112
G1 X110.585 Y86.325 E13.89352
G1 X111.681 Y86.345 E13.92998
G1 X112.369 Y86.382 E13.95289
G1 X112.767 Y86.417 E13.96618
G1 X114.052 Y86.613 E14.00941
G1 X114.587 Y86.73 E14.02763
G1 X115.46 Y86.962 E14.05767
G1 X115.956 Y87.132 E14.07511
G1 X116.487 Y87.329 E14.09395
G1 X117.689 Y87.866 E14.13774
G1 X118.69 Y88.393 E14.17536
G1 X121.097 Y89.619 E14.26521
G1 X123.344 Y90.682 E14.34788
G1 X126.655 Y92.131 E14.46809
G1 X127.465 Y92.53 E14.49812
G1 X128.334 Y93.046 E14.53174
G1 X129.084 Y93.549 E14.56177
G1 X129.501 Y93.873 E14.57934
G1 X129.941 Y94.234 E14.59827
G1 X130.613 Y94.838 E14.62832
G1 X130.956 Y95.19 E14.64467
G1 X131.318 Y95.581 E14.66239
G1 X132.162 Y96.623 E14.70699
G1 X132.466 Y97.053 E14.7245
G1 X132.954 Y97.813 E14.75454
G1 X133.188 Y98.238 E14.77068
G1 X133.467 Y98.775 E14.79081
G1 X133.848 Y99.594 E14.82085
G1 X134.082 Y100.222 E14.84314
G1 X134.244 Y100.703 E14.86002
G1 X134.569 Y101.903 E14.90137
G1 X134.675 Y102.418 E14.91886
G1 X134.848 Y103.621 E14.95928
G1 X134.871 Y103.895 E14.96843
G1 X134.905 Y104.549 E14.99021
G1 X134.931 Y105.988 E15.03808
G1 X134.925 Y114.772 E15.33024
G1 X134.911 Y115.299 E15.34777
G1 X134.869 Y116.1 E15.37445
G1 X134.782 Y116.999 E15.40449
G1 X134.668 Y117.651 E15.4265
G1 X134.555 Y118.192 E15.44489
G1 X134.331 Y119.067 E15.47493
G1 X134.176 Y119.538 E15.49142
G1 X133.996 Y120.042 E15.50922
G1 X133.655 Y120.878 E15.53925
G1 X133.189 Y121.799 E15.57358
G1 X132.738 Y122.581 E15.6036
G1 X132.16 Y123.419 E15.63746
G1 X131.607 Y124.133 E15.6675
G1 X131.291 Y124.488 E15.68331
G1 X130.882 Y124.927 E15.70326
G1 X130.238 Y125.56 E15.7333
G1 X129.739 Y125.98 E15.75499
G1 X129.359 Y126.28 E15.77109
G1 X128.347 Y126.984 E15.8121
G1 X127.858 Y127.282 E15.83114
G1 X127.067 Y127.717 E15.86117
G1 X126.554 Y127.953 E15.87995
G1 X125.731 Y128.298 E15.90963
G1 X125.047 Y128.562 E15.93402
G1 X123.816 Y129.016 E15.97765
G1 X121.478 Y129.953 E16.06143
G1 X119.145 Y130.965 E16.14601
G1 X116.174 Y132.363 E16.25522
G1 X115.238 Y132.748 E16.28888
G1 X114.716 Y132.933 E16.3073
G1 X113.853 Y133.197 E16.33732
G1 X113.355 Y133.312 E16.35432
G1 X112.813 Y133.423 E16.37272
G1 X111.601 Y133.596 E16.41344
M204 S2000
G1 F2400 E15.61344
;MESH:Direccion,2pero2.0 (1).stl
G0 F7500 X114.807 Y120.425
G0 X115.961 Y110.025
G0 X115.912 Y109.362
G0 X115.771 Y108.711
G0 X115.539 Y108.087
G0 X115.219 Y107.502
G0 X114.82 Y106.969
G0 X114.35 Y106.499
G0 X113.817 Y106.1
G0 X113.232 Y105.78
G0 X111.277 Y105.19
G0 X105.426 Y103.923
M204 S500
;TYPE:WALL-INNER
G1 F2400 E16.41344
G1 F1500 X111.276 Y103.922 E16.60801
G1 X111.785 Y103.884 E16.62499
G1 X112.239 Y103.786 E16.64044
G1 X112.706 Y103.612 E16.65701
G1 X113.13 Y103.382 E16.67305
G1 X113.508 Y103.098 E16.68878
G1 X113.86 Y102.743 E16.70541
G1 X114.147 Y102.36 E16.72133
G1 X114.38 Y101.94 E16.7373
G1 X114.553 Y101.471 E16.75393
G1 X114.652 Y101.019 E16.76932
G1 X114.686 Y100.524 E16.78582
G1 X114.652 Y100.029 E16.80232
G1 X114.554 Y99.577 E16.81771
G1 X114.381 Y99.108 E16.83433
G1 X114.147 Y98.687 E16.85035
G1 X113.861 Y98.302 E16.8663
G1 X113.509 Y97.951 E16.88284
G1 X113.131 Y97.667 E16.89856
G1 X112.705 Y97.435 E16.9147
G1 X112.239 Y97.258 E16.93128
G1 X111.79 Y97.165 E16.94653
G1 X111.257 Y97.125 E16.9643
G1 X99.327 Y97.124 E17.3611
G1 X98.796 Y97.164 E17.37881
G1 X98.341 Y97.259 E17.39427
G1 X97.877 Y97.435 E17.41077
G1 X97.453 Y97.667 E17.42685
G1 X97.07 Y97.952 E17.44273
G1 X96.72 Y98.301 E17.45917
G1 X96.435 Y98.685 E17.47507
