;FLAVOR:Marlin
;TIME:1479
;Filament used: 1.10247m
;Layer height: 0.2
;MINX:85.531
;MINY:68.811
;MINZ:0.2
;MAXX:134.47
;MAXY:151.195
;MAXZ:3
;TARGET_MACHINE.NAME:Creality Ender-3 S1
;Generated with Cura_SteamEngine 5.9.1
M82 ;absolute extrusion mode
; Ender 3 S1 Start G-code
; M413 S0 ; Disable power loss recovery
G92 E0 ; Reset Extruder

; Prep surfaces before auto home for better accuracy
M140 S65
M104 S215

G28 ; Home all axes
G1 Z10.0 F3000 ; Move Z Axis up little to prevent scratching of Heat Bed
G1 X0 Y0

M190 S65
M109 S215

G1 X0.1 Y20 Z0.3 F5000.0 ; Move to start position
G1 X0.1 Y200.0 Z0.3 F1500.0 E15 ; Draw the first line
G1 X0.4 Y200.0 Z0.3 F5000.0 ; Move to side a little
G1 X0.4 Y20 Z0.3 F1500.0 E30 ; Draw the second line
G92 E0 ; Reset Extruder
G1 Z2.0 F3000 ; Move Z Axis up little to prevent scratching of Heat Bed
G1 X5 Y20 Z0.3 F5000.0 ; Move over to prevent blob squish

G92 E0
G92 E0
G1 F2400 E-0.8
;LAYER_COUNT:15
;LAYER:0
M107
M204 S2000
G0 F7500 X111.78 Y151.121 Z0.2
M204 S500
;TYPE:SKIRT
G1 F2400 E0
G1 F1500 X110.505 Y151.195 E0.04248
G1 X109.744 Y151.186 E0.06779
G1 X109.089 Y151.158 E0.0896
G1 X108.077 Y151.065 E0.1234
G1 X106.979 Y150.859 E0.16055
G1 X106.174 Y150.653 E0.18819
G1 X105.522 Y150.463 E0.21078
G1 X104.631 Y150.158 E0.2421
G1 X103.571 Y149.679 E0.28079
G1 X102.827 Y149.278 E0.3089
G1 X102.221 Y148.925 E0.33223
G1 X101.461 Y148.437 E0.36227
G1 X100.458 Y147.642 E0.40484
G1 X99.951 Y147.18 E0.42765
G1 X99.496 Y146.743 E0.44863
G1 X98.845 Y146.057 E0.48009
G1 X98.061 Y145.153 E0.51989
G1 X89.449 Y134.891 E0.96547
G1 X88.901 Y134.217 E0.99436
G1 X88.511 Y133.709 E1.01566
G1 X88.113 Y133.139 E1.03878
G1 X87.792 Y132.65 E1.05824
G1 X87.296 Y131.81 E1.09068
G1 X86.867 Y130.911 E1.12381
G1 X86.552 Y130.162 E1.15084
G1 X86.208 Y129.225 E1.18404
G1 X85.925 Y128.147 E1.22111
G1 X85.798 Y127.537 E1.24183
G1 X85.688 Y126.933 E1.26225
G1 X85.566 Y125.924 E1.29605
G1 X85.534 Y125.091 E1.32378
G1 X85.531 Y85.788 E2.631
G1 X85.544 Y84.909 E2.66024
G1 X85.605 Y83.929 E2.6929
G1 X85.782 Y82.818 E2.73032
G1 X85.972 Y81.961 E2.75951
G1 X86.078 Y81.532 E2.77421
G1 X86.334 Y80.666 E2.80425
G1 X86.82 Y79.473 E2.84709
G1 X87.096 Y78.894 E2.86843
G1 X87.389 Y78.319 E2.88989
G1 X87.859 Y77.502 E2.92124
G1 X88.577 Y76.495 E2.96238
G1 X88.972 Y76.005 E2.98331
G1 X89.443 Y75.451 E3.00749
G1 X90.063 Y74.794 E3.03754
G1 X90.995 Y73.982 E3.07865
G1 X91.539 Y73.56 E3.10155
G1 X92.075 Y73.166 E3.12368
G1 X92.899 Y72.629 E3.15639
G1 X93.939 Y72.088 E3.19538
G1 X94.753 Y71.724 E3.22504
G1 X95.106 Y71.577 E3.23776
G1 X95.992 Y71.253 E3.26913
G1 X97.192 Y70.944 E3.31035
G1 X98.177 Y70.756 E3.3437
G1 X100.257 Y70.425 E3.41375
G1 X102.71 Y69.987 E3.49663
G1 X105.574 Y69.389 E3.59394
G1 X106.385 Y69.205 E3.6216
G1 X107.28 Y69.023 E3.65198
G1 X108.173 Y68.883 E3.68204
G1 X109.478 Y68.811 E3.72551
G1 X110.302 Y68.815 E3.75292
G1 X110.971 Y68.838 E3.77518
G1 X111.994 Y68.935 E3.80936
G1 X113.055 Y69.139 E3.8453
G1 X113.854 Y69.346 E3.87275
G1 X114.493 Y69.533 E3.89489
G1 X115.348 Y69.825 E3.92494
G1 X116.468 Y70.333 E3.96585
G1 X117.134 Y70.693 E3.99103
G1 X117.751 Y71.05 E4.01474
G1 X118.545 Y71.559 E4.04611
G1 X119.47 Y72.288 E4.08528
G1 X120.065 Y72.828 E4.112
G1 X120.513 Y73.259 E4.13268
G1 X121.159 Y73.94 E4.1639
G1 X121.931 Y74.83 E4.20308
G1 X130.635 Y85.203 E4.65346
G1 X131.072 Y85.739 E4.67646
G1 X131.439 Y86.217 E4.69651
G1 X131.885 Y86.85 E4.72226
G1 X132.206 Y87.338 E4.74169
G1 X132.685 Y88.146 E4.77293
G1 X133.134 Y89.085 E4.80755
G1 X133.459 Y89.861 E4.83553
G1 X133.772 Y90.708 E4.86556
G1 X134.097 Y91.96 E4.90858
G1 X134.262 Y92.795 E4.93689
G1 X134.402 Y93.727 E4.96824
G1 X134.465 Y94.892 E5.00704
G1 X134.47 Y134.197 E6.31433
G1 X134.457 Y135.08 E6.34371
G1 X134.396 Y136.06 E6.37636
G1 X134.214 Y137.201 E6.41479
G1 X134.105 Y137.709 E6.43207
G1 X133.93 Y138.432 E6.45682
G1 X133.635 Y139.414 E6.49092
G1 X133.187 Y140.503 E6.53008
G1 X132.913 Y141.079 E6.5513
G1 X132.605 Y141.686 E6.57394
G1 X132.156 Y142.469 E6.60396
G1 X131.421 Y143.5 E6.64607
G1 X131.043 Y143.97 E6.66613
G1 X130.57 Y144.528 E6.69046
G1 X129.923 Y145.214 E6.72183
G1 X129.023 Y145.998 E6.76153
G1 X128.261 Y146.585 E6.79352
G1 X127.973 Y146.793 E6.80533
G1 X127.151 Y147.333 E6.83805
G1 X126.074 Y147.897 E6.87848
G1 X125.488 Y148.163 E6.89989
G1 X124.871 Y148.425 E6.92218
G1 X124.022 Y148.735 E6.95224
G1 X122.816 Y149.047 E6.99367
G1 X121.841 Y149.234 E7.02669
G1 X119.709 Y149.574 E7.0985
G1 X117.263 Y150.01 E7.18114
G1 X114.313 Y150.627 E7.28138
G1 X113.351 Y150.843 E7.31417
G1 X112.672 Y150.98 E7.33721
G1 X111.78 Y151.121 E7.36725
M204 S2000
G0 F7500 X111.718 Y150.726
M204 S500
G1 F1500 X110.51 Y150.795 E7.40749
G1 X109.761 Y150.786 E7.4324
G1 X109.106 Y150.758 E7.45421
G1 X108.151 Y150.672 E7.4861
G1 X107.053 Y150.466 E7.52326
G1 X106.286 Y150.269 E7.5496
G1 X105.651 Y150.084 E7.57159
G1 X104.796 Y149.793 E7.60163
G1 X103.736 Y149.314 E7.64032
G1 X103.028 Y148.932 E7.66708
G1 X102.437 Y148.588 E7.68982
G1 X101.677 Y148.1 E7.71986
G1 X100.727 Y147.346 E7.7602
G1 X100.228 Y146.892 E7.78264
G1 X99.786 Y146.467 E7.80304
G1 X99.147 Y145.795 E7.83388
G1 X98.367 Y144.896 E7.87346
G1 X89.759 Y134.638 E8.31886
G1 X89.218 Y133.974 E8.34734
G1 X88.839 Y133.48 E8.36805
G1 X88.447 Y132.919 E8.39082
G1 X88.136 Y132.446 E8.40964
G1 X87.657 Y131.638 E8.44089
G1 X87.236 Y130.756 E8.47339
G1 X86.921 Y130.007 E8.50042
G1 X86.595 Y129.123 E8.53175
G1 X86.317 Y128.066 E8.56811
G1 X86.192 Y127.465 E8.58852
G1 X86.082 Y126.861 E8.60894
G1 X85.966 Y125.908 E8.64087
G1 X85.934 Y125.091 E8.66807
G1 X85.931 Y85.794 E9.97509
G1 X85.943 Y84.933 E10.00373
G1 X86 Y83.992 E10.03509
G1 X86.177 Y82.881 E10.0725
G1 X86.36 Y82.057 E10.10058
G1 X86.462 Y81.645 E10.1147
G1 X86.718 Y80.779 E10.14473
G1 X87.181 Y79.645 E10.18547
G1 X87.453 Y79.075 E10.20648
G1 X87.736 Y78.518 E10.22726
G1 X88.185 Y77.734 E10.25731
G1 X88.889 Y76.746 E10.29766
G1 X89.277 Y76.264 E10.31824
G1 X89.734 Y75.726 E10.34171
G1 X90.354 Y75.069 E10.37176
G1 X91.241 Y74.298 E10.41085
G1 X91.776 Y73.882 E10.43339
G1 X92.294 Y73.501 E10.45478
G1 X93.084 Y72.984 E10.48618
G1 X94.103 Y72.453 E10.5244
G1 X94.906 Y72.093 E10.55367
G1 X95.243 Y71.953 E10.5658
G1 X96.129 Y71.629 E10.59718
G1 X97.267 Y71.337 E10.63626
G1 X98.24 Y71.151 E10.6692
G1 X100.327 Y70.819 E10.73949
G1 X102.792 Y70.379 E10.82277
G1 X105.656 Y69.78 E10.92009
G1 X106.465 Y69.597 E10.94768
G1 X107.342 Y69.418 E10.97745
G1 X108.235 Y69.278 E11.00751
G1 X109.476 Y69.211 E11.04885
G1 X110.288 Y69.215 E11.07586
G1 X110.957 Y69.238 E11.09812
G1 X111.918 Y69.328 E11.13022
G1 X112.979 Y69.532 E11.16616
G1 X113.742 Y69.73 E11.19238
G1 X114.364 Y69.912 E11.21393
G1 X115.219 Y70.204 E11.24398
G1 X116.278 Y70.685 E11.28267
G1 X116.934 Y71.039 E11.30746
G1 X117.535 Y71.387 E11.33056
G1 X118.329 Y71.896 E11.36193
G1 X119.222 Y72.602 E11.39979
G1 X119.788 Y73.116 E11.42522
G1 X120.223 Y73.534 E11.44529
G1 X120.857 Y74.202 E11.47592
G1 X121.625 Y75.087 E11.51489
G1 X130.325 Y85.456 E11.96508
G1 X130.755 Y85.983 E11.9877
G1 X131.112 Y86.447 E12.00717
G1 X131.551 Y87.07 E12.03252
G1 X131.862 Y87.543 E12.05135
G1 X132.324 Y88.319 E12.08139
G1 X132.765 Y89.24 E12.11535
G1 X133.084 Y90 E12.14276
G1 X133.397 Y90.847 E12.1728
G1 X133.705 Y92.037 E12.21368
G1 X133.866 Y92.854 E12.24138
G1 X134.006 Y93.786 E12.27272
G1 X134.065 Y94.892 E12.30956
G1 X134.07 Y134.191 E13.61665
G1 X134.058 Y135.056 E13.64542
G1 X134.001 Y135.997 E13.67678
G1 X133.823 Y137.117 E13.7145
G1 X133.716 Y137.615 E13.73144
G1 X133.541 Y138.338 E13.75618
G1 X133.265 Y139.262 E13.78826
G1 X132.826 Y140.331 E13.82669
G1 X132.556 Y140.898 E13.84758
G1 X132.258 Y141.487 E13.86953
G1 X131.809 Y142.27 E13.89956
G1 X131.109 Y143.249 E13.93958
G1 X130.731 Y143.719 E13.95964
G1 X130.278 Y144.254 E13.98296
G1 X129.66 Y144.912 E14.01299
G1 X128.76 Y145.696 E14.05268
G1 X128.026 Y146.261 E14.08349
G1 X127.753 Y146.459 E14.09471
G1 X126.965 Y146.979 E14.12611
G1 X125.908 Y147.533 E14.1658
G1 X125.332 Y147.795 E14.18685
G1 X124.734 Y148.049 E14.20846
G1 X123.885 Y148.359 E14.23852
G1 X122.74 Y148.654 E14.27785
G1 X121.778 Y148.839 E14.31043
G1 X119.639 Y149.18 E14.38247
G1 X117.181 Y149.618 E14.46551
G1 X114.231 Y150.236 E14.56576
G1 X113.272 Y150.451 E14.59845
G1 X112.61 Y150.585 E14.62091
G1 X111.718 Y150.726 E14.65095
M204 S2000
G0 F7500 X111.656 Y150.331
M204 S500
G1 F1500 X110.515 Y150.395 E14.68896
G1 X109.778 Y150.386 E14.71347
G1 X109.123 Y150.358 E14.73528
G1 X108.224 Y150.279 E14.76529
G1 X107.153 Y150.079 E14.80153
G1 X106.398 Y149.885 E14.82746
G1 X105.78 Y149.705 E14.84887
G1 X104.925 Y149.414 E14.87891
G1 X103.926 Y148.962 E14.91538
G1 X103.229 Y148.586 E14.94172
G1 X102.653 Y148.251 E14.96388
G1 X101.893 Y147.763 E14.99392
G1 X100.996 Y147.05 E15.03203
G1 X100.505 Y146.603 E15.05411
G1 X100.076 Y146.191 E15.0739
G1 X99.449 Y145.533 E15.10413
G1 X98.673 Y144.639 E15.1435
G1 X90.069 Y134.385 E15.58871
G1 X89.535 Y133.731 E15.61679
G1 X89.167 Y133.251 E15.63691
G1 X88.781 Y132.699 E15.65931
G1 X88.48 Y132.241 E15.67754
G1 X88.018 Y131.465 E15.70758
G1 X87.605 Y130.601 E15.73943
G1 X87.296 Y129.868 E15.76588
G1 X86.982 Y129.021 E15.79593
G1 X86.709 Y127.984 E15.83159
G1 X86.586 Y127.393 E15.85167
G1 X86.476 Y126.789 E15.87209
G1 X86.366 Y125.892 E15.90215
G1 X86.334 Y125.091 E15.92881
G1 X86.331 Y85.799 E17.23567
G1 X86.342 Y84.956 E17.26371
G1 X86.395 Y84.055 E17.29373
G1 X86.572 Y82.944 E17.33115
G1 X86.748 Y82.153 E17.3581
G1 X86.846 Y81.758 E17.37164
G1 X87.102 Y80.892 E17.40167
G1 X87.542 Y79.817 E17.44031
G1 X87.81 Y79.256 E17.46098
G1 X88.083 Y78.717 E17.48108
G1 X88.532 Y77.933 E17.51113
G1 X89.201 Y76.997 E17.54939
G1 X89.582 Y76.523 E17.56962
G1 X90.025 Y76.001 E17.59239
G1 X90.645 Y75.344 E17.62244
G1 X91.486 Y74.614 E17.65948
G1 X92.014 Y74.204 E17.68171
G1 X92.514 Y73.835 E17.70238
G1 X93.269 Y73.339 E17.73243
G1 X94.267 Y72.818 E17.76987
G1 X95.061 Y72.462 E17.79881
G1 X95.381 Y72.328 E17.81035
G1 X96.229 Y72.016 E17.8404
G1 X97.342 Y71.73 E17.87863
G1 X98.303 Y71.546 E17.91117
G1 X100.397 Y71.213 E17.98169
G1 X102.874 Y70.771 E18.06538
G1 X105.738 Y70.171 E18.1627
G1 X106.545 Y69.989 E18.19022
G1 X107.404 Y69.813 E18.21938
G1 X108.297 Y69.673 E18.24945
G1 X109.474 Y69.611 E18.28865
G1 X110.274 Y69.615 E18.31526
G1 X110.943 Y69.638 E18.33752
G1 X111.842 Y69.721 E18.36755
G1 X112.903 Y69.925 E18.40348
G1 X113.63 Y70.114 E18.42847
G1 X114.235 Y70.291 E18.44943
G1 X115.09 Y70.583 E18.47948
G1 X116.088 Y71.037 E18.51595
G1 X116.734 Y71.385 E18.54036
G1 X117.32 Y71.724 E18.56287
G1 X118.081 Y72.21 E18.5929
G1 X118.974 Y72.916 E18.63077
G1 X119.511 Y73.404 E18.6549
G1 X119.933 Y73.81 E18.67438
G1 X120.555 Y74.464 E18.7044
G1 X121.319 Y75.344 E18.74316
G1 X130.015 Y85.709 E19.19316
G1 X130.438 Y86.227 E19.2154
G1 X130.785 Y86.677 E19.2343
G1 X131.217 Y87.29 E19.25924
G1 X131.518 Y87.748 E19.27747
G1 X131.98 Y88.524 E19.30751
G1 X132.396 Y89.395 E19.33961
G1 X132.709 Y90.139 E19.36646
G1 X133.022 Y90.986 E19.39649
G1 X133.313 Y92.115 E19.43527
G1 X133.471 Y92.914 E19.46236
G1 X133.607 Y93.807 E19.4924
G1 X133.665 Y94.892 E19.52854
G1 X133.67 Y134.186 E20.83547
G1 X133.659 Y135.033 E20.86364
G1 X133.606 Y135.934 E20.89366
G1 X133.432 Y137.033 E20.93067
G1 X133.327 Y137.521 E20.94727
G1 X133.152 Y138.244 E20.97201
G1 X132.895 Y139.11 E21.00206
G1 X132.465 Y140.159 E21.03976
G1 X132.199 Y140.718 E21.06035
G1 X131.911 Y141.288 E21.0816
G1 X131.462 Y142.071 E21.11162
G1 X130.797 Y142.998 E21.14956
G1 X130.419 Y143.468 E21.16962
G1 X129.986 Y143.98 E21.19192
G1 X129.368 Y144.638 E21.22195
G1 X128.516 Y145.379 E21.2595
G1 X127.79 Y145.938 E21.28998
G1 X127.532 Y146.126 E21.3006
G1 X126.779 Y146.625 E21.33064
G1 X125.743 Y147.169 E21.36956
G1 X125.175 Y147.427 E21.39031
G1 X124.597 Y147.673 E21.4112
G1 X123.748 Y147.983 E21.44127
G1 X122.664 Y148.261 E21.47849
G1 X121.715 Y148.444 E21.51063
G1 X119.569 Y148.786 E21.58291
G1 X117.111 Y149.224 E21.66595
G1 X114.144 Y149.846 E21.76678
G1 X113.192 Y150.059 E21.79922
G1 X112.548 Y150.19 E21.82108
G1 X111.656 Y150.331 E21.85112
M204 S2000
G1 F2400 E21.05112
;MESH:Pieza111.stl(1)
G0 F7500 X110.521 Y138.61
G0 X109.925 Y138.469
M204 S500
;TYPE:WALL-INNER
G1 F2400 E21.85112
G1 F1500 X109.15 Y138.245 E21.87795
G1 X108.47 Y137.735 E21.90622
G1 X108.098 Y137.133 E21.92976
G1 X108.018 Y136.927 E21.93711
G1 X107.906 Y136.331 E21.95728
G1 X107.906 Y136.109 E21.96466
G1 X108.018 Y135.513 E21.98483
G1 X108.098 Y135.307 E21.99218
G1 X108.479 Y134.693 E22.01622
G1 X109.051 Y134.264 E22.04
G1 X109.248 Y134.166 E22.04732
G1 X109.828 Y134.002 E22.06736
G1 X110.047 Y133.982 E22.07468
G1 X110.655 Y134.038 E22.09498
G1 X110.867 Y134.098 E22.10231
G1 X111.494 Y134.409 E22.12559
G1 X112.067 Y135.029 E22.15367
G1 X112.365 Y135.793 E22.18095
G1 X112.362 Y136.655 E22.20962
G1 X112.067 Y137.406 E22.23645
G1 X111.494 Y138.031 E22.26465
G1 X110.773 Y138.387 E22.2914
G1 X109.925 Y138.469 E22.31974
M204 S2000
G1 F2400 E21.51974
G0 F7500 X109.209 Y138.107
G0 X107.84 Y136.959
G0 X107.105 Y137.575
G0 X106.455 Y137.11
M204 S500
G1 F2400 E22.31974
G1 F1500 X107.505 Y138.362 E22.37408
G1 X108.147 Y138.96 E22.40326
G1 X108.861 Y139.365 E22.43057
G1 X109.645 Y139.578 E22.45759
G1 X110.467 Y139.602 E22.48494
G1 X111.261 Y139.429 E22.51197
G1 X112.001 Y139.065 E22.5394
G1 X112.625 Y138.539 E22.56654
G1 X113.104 Y137.884 E22.59353
G1 X113.421 Y137.115 E22.62119
G1 X113.539 Y136.311 E22.64822
G1 X113.465 Y135.5 E22.67531
G1 X113.193 Y134.72 E22.70278
G1 X112.725 Y134.007 E22.73115
G1 X104.044 Y123.658 E23.18042
G1 X103.904 Y123.349 E23.19171
G1 X103.904 Y85.575 E24.44807
G1 X103.808 Y84.756 E24.4755
G1 X103.541 Y84.021 E24.50151
G1 X103.097 Y83.353 E24.52819
G1 X102.527 Y82.813 E24.5543
G1 X101.841 Y82.42 E24.5806
G1 X101.091 Y82.196 E24.60663
G1 X100.293 Y82.152 E24.63321
G1 X99.526 Y82.287 E24.65912
G1 X98.8 Y82.603 E24.68545
G1 X98.168 Y83.074 E24.71167
G1 X97.662 Y83.682 E24.73798
G1 X97.309 Y84.394 E24.76441
G1 X97.129 Y85.162 E24.79064
G1 X97.132 Y124.256 E26.09092
G1 X97.118 Y125.017 E26.11623
G1 X97.246 Y125.698 E26.13928
G1 X97.511 Y126.329 E26.16204
G1 X97.928 Y126.946 E26.18681
G1 X106.455 Y137.11 E26.62808
M204 S2000
G1 F2400 E25.82808
G0 F7500 X108.243 Y138.83
G0 X108.923 Y139.215
G0 X109.669 Y139.417
G0 X110.452 Y139.44
G0 X111.207 Y139.276
G0 X111.912 Y138.93
G0 X112.507 Y138.429
G0 X112.962 Y137.805
G0 X113.265 Y137.071
G0 X113.377 Y136.306
G0 X113.307 Y135.535
G0 X113.048 Y134.792
G0 X112.597 Y134.103
G0 X104.058 Y123.437
G0 X104.093 Y94.752
G0 X103.704 Y87.792
G0 X102.485 Y86.935
G0 X100.289 Y87.792
M204 S500
G1 F2400 E26.62808
G1 F1500 X99.604 Y87.598 E26.65175
G1 X99.403 Y87.497 E26.65924
G1 X98.922 Y87.129 E26.67938
G1 X98.779 Y86.972 E26.68644
G1 X98.455 Y86.455 E26.70674
G1 X98.374 Y86.247 E26.71416
G1 X98.241 Y85.536 E26.73822
G1 X98.4 Y84.719 E26.7659
G1 X98.83 Y84.017 E26.79328
G1 X99.487 Y83.526 E26.82056
G1 X100.289 Y83.296 E26.84831
G1 X101.12 Y83.366 E26.87605
G1 X101.867 Y83.737 E26.90379
G1 X102.435 Y84.368 E26.93203
G1 X102.72 Y85.12 E26.95878
G1 X102.724 Y85.957 E26.98661
G1 X102.469 Y86.623 E27.01033
G1 X102.352 Y86.812 E27.01773
G1 X101.944 Y87.261 E27.03791
G1 X101.769 Y87.393 E27.0452
G1 X101.225 Y87.665 E27.06543
G1 X101.012 Y87.726 E27.07279
G1 X100.289 Y87.792 E27.09694
M204 S2000
G0 F7500 X100.327 Y87.387
M204 S500
;TYPE:WALL-OUTER
G1 F1500 X99.677 Y87.203 E27.11941
G1 X99.136 Y86.788 E27.14209
G1 X98.774 Y86.211 E27.16474
G1 X98.652 Y85.541 E27.18739
G1 X98.784 Y84.855 E27.21063
